outputs/icons/hardware/monitor_sharp.svg

<svg xmlns="http://www.w3.org/2000/svg" width="1200" height="1200" fill="none"><g clip-path="url(#a)"><path fill="#000" d="M1100 150H100v750h250l-50 50v100h600V950l-50-50h250zm-100 650H200V250h800z"/></g><defs><clipPath id="a"><path fill="#fff" d="M0 0h1200v1200H0z"/></clipPath></defs></svg>

<svg width="1200" height="1200" viewBox="0 0 1200 1200" fill="none" xmlns="http://www.w3.org/2000/svg"><g clip-path="url(#clip0_133_26)"><path d="M1100 150H100V900H350L300 950V1050H900V950L850 900H1100V150ZM1000 800H200V250H1000V800Z" fill="#1D1E23"/></g><defs><clipPath id="clip0_133_26"><path width="24" fill="white" d="M0 0H1200V1200H0V0z"/></clipPath></defs></svg>
